dist/icons/activities/6.svg

<svg width="40" height="40" viewBox="0 0 40 40" fill="none" xmlns="http://www.w3.org/2000/svg">
<path d="M40 11.162H34.0459V8.59829H17.8262L15.9034 3.47095H2V34.8759H34.0459V34.3164L40 11.162ZM38.3464 12.4438L34.0459 29.1692V12.4438H38.3464ZM3.28184 4.75278H15.0151L16.9379 9.88012H32.764V11.162V33.5941H3.28184V4.75278Z" fill="#DEC377"/>
<path d="M5.84546 31.0303H21.2275V21.4165H5.84546V31.0303ZM7.12729 22.6983H19.9456V29.7484H7.12729V22.6983Z" fill="#DEC377"/>
<path d="M14.8184 27.1851H9.0501C8.69567 27.1851 8.40918 27.4715 8.40918 27.826C8.40918 28.1804 8.69567 28.4669 9.0501 28.4669H14.8184C15.1728 28.4669 15.4593 28.1804 15.4593 27.826C15.4593 27.4715 15.1728 27.1851 14.8184 27.1851Z" fill="#DEC377"/>
<path d="M9.0501 25.2623H11.6138C11.9682 25.2623 12.2547 24.9758 12.2547 24.6214C12.2547 24.267 11.9682 23.9805 11.6138 23.9805H9.0501C8.69567 23.9805 8.40918 24.267 8.40918 24.6214C8.40918 24.9758 8.69567 25.2623 9.0501 25.2623Z" fill="#DEC377"/>
<path d="M18.0229 23.9805H16.741C16.3866 23.9805 16.1001 24.267 16.1001 24.6214C16.1001 24.9758 16.3866 25.2623 16.741 25.2623H18.0229C18.3773 25.2623 18.6638 24.9758 18.6638 24.6214C18.6638 24.267 18.3773 23.9805 18.0229 23.9805Z" fill="#DEC377"/>
<path d="M16.9271 27.3707C16.8111 27.4919 16.7412 27.6521 16.7412 27.8258C16.7412 27.9988 16.8111 28.1591 16.9271 28.2744C17.0482 28.3956 17.2084 28.4667 17.3821 28.4667C17.5488 28.4667 17.7154 28.3962 17.8372 28.2808C17.9525 28.1591 18.023 27.9924 18.023 27.8258C18.023 27.6591 17.9525 27.4919 17.8372 27.3707C17.6 27.1336 17.1642 27.1336 16.9271 27.3707Z" fill="#DEC377"/>
<path d="M14.1775 25.2621C14.3442 25.2621 14.5108 25.1916 14.6326 25.0762C14.748 24.9545 14.8185 24.7878 14.8185 24.6212C14.8185 24.4475 14.748 24.2873 14.6326 24.1661C14.3955 23.929 13.9526 23.929 13.7225 24.1661C13.6065 24.2873 13.5366 24.4545 13.5366 24.6212C13.5366 24.7878 13.6065 24.9545 13.7225 25.0762C13.8436 25.1916 14.0109 25.2621 14.1775 25.2621Z" fill="#DEC377"/>
</svg>

<svg width="40" height="40" fill="none" xmlns="http://www.w3.org/2000/svg"><path d="M40 11.162h-5.954V8.598h-16.22l-1.923-5.127H2v31.405h32.046v-.56L40 11.162zm-1.654 1.282l-4.3 16.725V12.444h4.3zM3.282 4.753h11.733l1.923 5.127h15.826v23.714H3.282V4.753z" fill="#DEC377"/><path d="M5.845 31.03h15.383v-9.614H5.845v9.614zm1.282-8.332h12.819v7.05H7.127v-7.05z" fill="#DEC377"/><path d="M14.818 27.185H9.05a.64.64 0 100 1.282h5.768a.64.64 0 100-1.282zM9.05 25.262h2.564a.64.64 0 100-1.282H9.05a.64.64 0 100 1.282zm8.973-1.282H16.74a.64.64 0 100 1.282h1.282a.64.64 0 100-1.282zm-1.096 3.39a.657.657 0 00-.186.456c0 .173.07.333.186.448a.64.64 0 00.91.007.674.674 0 00.186-.455.673.673 0 00-.186-.455.671.671 0 00-.91 0zm-2.749-2.108c.166 0 .333-.07.455-.186a.674.674 0 00.186-.455.66.66 0 00-.186-.455c-.237-.237-.68-.237-.91 0a.67.67 0 00-.186.455c0 .167.07.334.185.455a.672.672 0 00.456.186z" fill="#DEC377"/></svg>
